X:20
T:Gammelmostri
O:norway
C:anon.
Z:Transcribed by Frank Nordberg - http://www.musicaviva.com
V:1 Program 1 110
M:3/4
L:1/8
Q:1/4=160
K:D
"D"d2 dA de|"D"fe fg f2|"D"d2 dA de|"D"f6:|"Em"g2 gf ga|
"Em"b2 ag f2|"G"g2 gf ga|"D"b2 ag "A"f2|"D"d2 fa ef|"D"d3|]
